**kern
*part1
*staff1
*clefC1
*M2/4
8r
=2
1%0r
=3
1%0r
=4
1%0r
=5
1%0r
=6
1%0r
=7
1%0r
=8
1%0r
=9
1%0r
=10
1%0r
=11
1%0r
=12
1%0r
=13
4r
8r
8g
=14
8.ccL
16eeJ
16ggL
16eeJ
16ffL
16ddJ
=15
8dd
4cc
8a
=16
8gL
16cc
16bJ
16ddL
16ccJ
16bL
16aJ
=17
8gL
8fJ
8e
8cc
=18
16bL
16ddJ
8cc
8r
=-
*-
